svg/blobs-icons/no-decorations/engine-oil.svg

<svg xmlns="http://www.w3.org/2000/svg" xmlns:xlink="http://www.w3.org/1999/xlink" preserveAspectRatio="xMidYMid" width="156" height="217" viewBox="0 0 156 217"><defs><style>.cls-3{fill:#2476ff}.cls-4{fill:#010101;opacity:.35}.cls-5{fill:#ff3a2f}.cls-7{fill:#142a3b}.cls-8{fill:#fff}</style></defs><g id="group-88svg"><path d="M108.442 31.17s0 20.92.0 20.92c0 3.205-2.59899999999999 5.806-5.806 5.806H35.085c-19.294.0-35.08 15.786-35.08 35.08v92.053c0 17.551 14.36 31.912 31.911 31.912H136.455c10.48.0 18.976-8.49700000000001 18.976-18.977V99.189s0-20.649.0-20.649.0-47.37.0-47.37C155.431 27.963 152.832 25.364 149.625 25.364H114.248C111.041 25.364 108.442 27.963 108.442 31.17z" id="path-1" class="cls-3" fill-rule="evenodd"/><path d="M141.784 25.364c-2.875.0-5.215 2.311-5.25100000000001 5.185L136.166 59.819s0 20.649.0 20.649.0 91.646.0 91.646c0 14.134-11.564 25.699-25.699 25.699H7.354C5.004 197.813 2.682 197.434.439 196.775c2.99 11.079 14.073 19.871 25.748 19.871H139.169c8.743.0 15.83-7.08799999999999 15.83-15.829V99.301s0-20.648.0-20.648S155.388 30.657 155.388 30.657C155.412 27.74 153.054 25.364 150.138 25.364H141.784z" id="path-2" class="cls-4" fill-rule="evenodd"/><path d="M151.615-.016s-39.997.0-39.997.0.0 25.001.0 25.001 39.997.0 39.997.0.0-25.001.0-25.001z" id="path-3" class="cls-5" fill-rule="evenodd"/><path d="M137.692.061s0 2.944.0 2.944c0 6.175-5.006 11.182-11.182 11.182H112.056s0 11.177.0 11.177 39.761.0 39.761.0.0-25.303.0-25.303-14.125.0-14.125.0z" id="path-4" class="cls-4" fill-rule="evenodd"/><path d="M119.656 148.058c0-20.346-36.839-59.478-36.839-59.478s-36.84 39.132-36.84 59.478c0 20.347 16.493 36.84 36.84 36.84 20.345.0 36.839-16.493 36.839-36.84z" id="path-5" class="cls-7" fill-rule="evenodd"/><path d="M16.842 96.281C14.846 96.281 13.228 94.662 13.228 92.666c0-16.696 15.547-25.707 30.175-25.707 1.996.0 3.614 1.619 3.614 3.616C47.017 72.571 45.399 74.189 43.403 74.189 32.279 74.189 20.457 80.665 20.457 92.666 20.457 94.662 18.837 96.281 16.842 96.281z" id="path-6" class="cls-8" fill-rule="evenodd"/><path d="M89.017 175.88c-18.76.0-34.022-15.262-34.022-34.023C54.995 139.861 56.613 138.242 58.609 138.242c1.996.0 3.615 1.619 3.615 3.61500000000001.0 14.774 12.019 26.794 26.793 26.794C91.013 168.651 92.632 170.269 92.632 172.266 92.632 174.262 91.013 175.88 89.017 175.88z" id="path-7" class="cls-8" fill-rule="evenodd"/></g></svg>

<svg xmlns="http://www.w3.org/2000/svg" xmlns:xlink="http://www.w3.org/1999/xlink" preserveAspectRatio="xMidYMid" width="156" height="217" viewBox="0 0 156 217">
  <defs>
    <style>

      .cls-3 {
        fill: #2476ff;
      }

      .cls-4 {
        fill: #010101;
        opacity: 0.35;
      }

      .cls-5 {
        fill: #ff3a2f;
      }

      .cls-7 {
        fill: #142a3b;
      }

      .cls-8 {
        fill: #ffffff;
      }
    </style>
  </defs>
  <g id="group-88svg">
    <path d="M108.442,31.170 C108.442,31.170 108.442,52.090 108.442,52.090 C108.442,55.295 105.843,57.896 102.636,57.896 C102.636,57.896 35.085,57.896 35.085,57.896 C15.791,57.896 0.005,73.682 0.005,92.976 C0.005,92.976 0.005,185.029 0.005,185.029 C0.005,202.580 14.365,216.941 31.916,216.941 C31.916,216.941 136.455,216.941 136.455,216.941 C146.935,216.941 155.431,208.444 155.431,197.964 C155.431,197.964 155.431,99.189 155.431,99.189 C155.431,99.189 155.431,78.540 155.431,78.540 C155.431,78.540 155.431,31.170 155.431,31.170 C155.431,27.963 152.832,25.364 149.625,25.364 C149.625,25.364 114.248,25.364 114.248,25.364 C111.041,25.364 108.442,27.963 108.442,31.170 Z" id="path-1" class="cls-3" fill-rule="evenodd"/>
    <path d="M141.784,25.364 C138.909,25.364 136.569,27.675 136.533,30.549 C136.533,30.549 136.166,59.819 136.166,59.819 C136.166,59.819 136.166,80.468 136.166,80.468 C136.166,80.468 136.166,172.114 136.166,172.114 C136.166,186.248 124.602,197.813 110.467,197.813 C110.467,197.813 7.354,197.813 7.354,197.813 C5.004,197.813 2.682,197.434 0.439,196.775 C3.429,207.854 14.512,216.646 26.187,216.646 C26.187,216.646 139.169,216.646 139.169,216.646 C147.912,216.646 154.999,209.558 154.999,200.817 C154.999,200.817 154.999,99.301 154.999,99.301 C154.999,99.301 154.999,78.653 154.999,78.653 C154.999,78.653 155.388,30.657 155.388,30.657 C155.412,27.740 153.054,25.364 150.138,25.364 C150.138,25.364 141.784,25.364 141.784,25.364 Z" id="path-2" class="cls-4" fill-rule="evenodd"/>
    <path d="M151.615,-0.016 C151.615,-0.016 111.618,-0.016 111.618,-0.016 C111.618,-0.016 111.618,24.985 111.618,24.985 C111.618,24.985 151.615,24.985 151.615,24.985 C151.615,24.985 151.615,-0.016 151.615,-0.016 Z" id="path-3" class="cls-5" fill-rule="evenodd"/>
    <path d="M137.692,0.061 C137.692,0.061 137.692,3.005 137.692,3.005 C137.692,9.180 132.686,14.187 126.510,14.187 C126.510,14.187 112.056,14.187 112.056,14.187 C112.056,14.187 112.056,25.364 112.056,25.364 C112.056,25.364 151.817,25.364 151.817,25.364 C151.817,25.364 151.817,0.061 151.817,0.061 C151.817,0.061 137.692,0.061 137.692,0.061 Z" id="path-4" class="cls-4" fill-rule="evenodd"/>
    <path d="M119.656,148.058 C119.656,127.712 82.817,88.580 82.817,88.580 C82.817,88.580 45.977,127.712 45.977,148.058 C45.977,168.405 62.470,184.898 82.817,184.898 C103.162,184.898 119.656,168.405 119.656,148.058 Z" id="path-5" class="cls-7" fill-rule="evenodd"/>
    <path d="M16.842,96.281 C14.846,96.281 13.228,94.662 13.228,92.666 C13.228,75.970 28.775,66.959 43.403,66.959 C45.399,66.959 47.017,68.578 47.017,70.575 C47.017,72.571 45.399,74.189 43.403,74.189 C32.279,74.189 20.457,80.665 20.457,92.666 C20.457,94.662 18.837,96.281 16.842,96.281 Z" id="path-6" class="cls-8" fill-rule="evenodd"/>
    <path d="M89.017,175.880 C70.257,175.880 54.995,160.618 54.995,141.857 C54.995,139.861 56.613,138.242 58.609,138.242 C60.605,138.242 62.224,139.861 62.224,141.857 C62.224,156.631 74.243,168.651 89.017,168.651 C91.013,168.651 92.632,170.269 92.632,172.266 C92.632,174.262 91.013,175.880 89.017,175.880 Z" id="path-7" class="cls-8" fill-rule="evenodd"/>
  </g>
</svg>
